X:80
T:Brig of Balater, The
R:Strathspey
C:Neil Gow
B:The Athole Collection
M:C
L:1/8
K:C
E|C>EG>A c>G A<a|g<c g>e d2 d>e|C>EG>A c>G A<a|g<c g>e c2c:|
e/f/|g<c e>c g<c f>a|g<c g>e d2 de/f/|g<c e>c g<c f>a|g>ce>d c2 ce/f/|
g<c e>c g<c f>a|g<c g>e d2 d>e|C>EG>A c>G A<a|g<c g>e c2c||

